X: 1
T: Molly On The Shore
M: 4/4
L: 1/8
R: reel
K: Gmaj
B/A/|:GEDB cABA|(3GAG BG AGEF|GEDB cABA|1(3GAG BG A2GB/A/:|2(3GAG BG A2Gd||
gfgd ecdB|(3GAG BG AGEd|gfgd ecdB|(3GAG BG A2Gd|
gfgd ecdB|(3GAG BG AGEF|GBAc Bdce|dBGB A2G2||
